X: 1
T:The Kid on the Mountain
M:9/8
L:1/8
Q:80
C:arr. Kent Hiestand
S:Jig
K:HP
| {g}BAB{g}cBc{Gdc}d2c|
{g}BAB{g}fge{g}fdB|
{g}BAB{g}cBc{Gdc}d2e|  !
{g}fed{g}cedcB{G}A:|
{g}fdfedc{Gdc}d2A|
{g}defa2{GdG}a{g}afd|  !
{g}fdfedc{Gdc}d2e|
{g}fed{g}cedcB{G}A:|
{a}gfgede{gef}e2f|  !
{a}gfgefgafe|1
{a}gfgefe{gef}e2f|
{gf}g3{g}fagfed:| |  !
|2 {a}gfgagf{gf}g2a|
{g}a2{GdG}a{g}fagfed|]
{g}eBe{gef}e2f{a}gfg|  !
{g}eBe{A}efgafe|
{g}eBe{gef}e2f{gf}g2a|
{g}a2{GdG}a{g}fagfed:|  !
{g}edB{g}dBA{d}G2A|
{g}GAB{g}dge{g}dBA|
{g}edB{g}dBA{d}G2A|  !
{g}ded{g}cedcB{G}A:|
